src/assets/icons/logoBigWhite.svg

<?xml version="1.0" encoding="UTF-8"?>
<svg width="1031px" height="1080px" viewBox="0 0 1031 1080" version="1.1" xmlns="http://www.w3.org/2000/svg" xmlns:xlink="http://www.w3.org/1999/xlink">
    <title>Group 4</title>
    <defs>
        <polygon id="path-1" points="0 0 1030.1484 0 1030.1484 1080 0 1080"></polygon>
    </defs>
    <g id="Page-1" stroke="none" stroke-width="1" fill="none" fill-rule="evenodd">
        <g id="Group-4">
            <mask id="mask-2" fill="white">
                <use xlink:href="#path-1"></use>
            </mask>
            <g id="Clip-3"></g>
            <path d="M430.4565,198.2107 C511.0165,198.2107 576.5185,263.7057 576.5185,344.2747 C576.5185,424.8427 511.0165,490.4377 430.4565,490.4377 L396.1485,490.4377 L396.1485,547.2887 L449.7525,547.2887 C542.0485,547.2887 617.1405,622.3807 617.1405,714.6767 C617.1405,807.0547 542.0485,882.1557 449.7525,882.1557 L302.7255,882.1557 L302.7255,198.2107 L430.4565,198.2107 Z M839.3325,503.4017 C923.0395,454.3197 975.0975,364.6797 974.0515,266.6437 C972.4495,117.9607 847.4475,-0.0003 698.7555,-0.0003 L245.8825,-0.0003 L245.8825,939.0067 L444.2575,939.0067 C568.0855,939.0067 672.6545,840.9707 673.9825,717.1507 C674.9375,627.6847 624.0175,548.5897 544.9225,512.1437 C600.2465,474.0977 633.4705,412.1517 633.4615,344.2377 C633.4425,232.5637 536.8815,141.2597 425.2065,141.2597 L302.7255,141.2597 L302.7255,56.8517 L699.2555,56.8517 C814.4235,56.8517 912.6595,146.1907 917.0545,261.2757 C921.6855,382.2837 824.5035,482.2767 704.5045,482.2767 L696.2355,482.2767 L696.2355,539.1277 L725.6025,539.1277 C861.1485,539.1277 975.5975,650.0377 973.2595,785.5657 C970.9945,917.1907 863.2685,1023.5147 731.2075,1023.5147 L56.8515,1023.5147 L56.8515,198.2107 L205.4805,198.2107 L205.4805,141.2597 L-0.0005,141.2597 L-0.0005,1080.3667 L724.8665,1080.3667 C884.2385,1080.3667 1020.3305,958.1757 1029.6285,799.0847 C1037.3335,667.2867 958.7125,549.1627 839.3325,503.4017 L839.3325,503.4017 Z" id="Fill-2" fill="#F2E8D8" mask="url(#mask-2)"></path>
        </g>
    </g>
</svg>

<svg height="1080" viewBox="0 0 1031 1080" width="1031" xmlns="http://www.w3.org/2000/svg" xmlns:xlink="http://www.w3.org/1999/xlink"><mask id="a" fill="#fff"><path d="m0 0h1030.1484v1080h-1030.1484z" fill="#fff" fill-rule="evenodd"/></mask><path d="m430.4565 198.2107c80.56 0 146.062 65.495 146.062 146.064 0 80.568-65.502 146.163-146.062 146.163h-34.308v56.851h53.604c92.296 0 167.388 75.092 167.388 167.388 0 92.378-75.092 167.479-167.388 167.479h-147.027v-683.945zm408.876 305.191c83.707-49.082 135.765-138.722 134.719-236.758-1.602-148.683-126.604-266.644-275.296-266.644h-452.873v939.007h198.375c123.828 0 228.397-98.036 229.725-221.856.955-89.466-49.965-168.561-129.06-205.007 55.324-38.046 88.548-99.992 88.539-167.906-.019-111.674-96.58-202.978-208.255-202.978h-122.481v-84.408h396.53c115.168 0 213.404 89.339 217.799 204.424 4.631 121.008-92.551 221.001-212.55 221.001h-8.269v56.851h29.367c135.546 0 249.995 110.91 247.657 246.438-2.265 131.625-109.991 237.949-242.052 237.949h-674.356v-825.304h148.629v-56.951h-205.481v939.107h724.867c159.372 0 295.464-122.191 304.762-281.282 7.705-131.798-70.916-249.922-190.296-295.683z" fill="#f2e8d8" fill-rule="evenodd" mask="url(#a)"/></svg>
